X:4
T:Hambopolska e. Bertil Ferneborg
R:hambo
C:Trad., via Bertil Ferneborg
M:3/4
L:1/8
K:D
|: "D"f2 ~f>e d>f | "A"~f>f e>c A2 | "(G)"a2 a>f g>b | "D"b>a ~a>f d>e
|  "D"f2 ~f>e d>f | "A"~f>f e>c A2 | "A7"{e}g2 ~g>e c>e | "D"d2 d4 :|
|: "D"((3ABA) (F>A) d>c | "G"B2 B>d g2 | "A"A2 A>c e>c | "D"{c}d2 d>f a>A
|  "D"((3ABA) (F>A) d>c | "G"B2 B>d g2 | "A"A2 A>c e>c | "D"d2 d4 :|
|: "D"((3aba) f>d c>B | "A"A2 c>e a2 | "A7"((3aba) g>f e>f | "D"((3gag) f>e d>f
|  "D"((3aba) f>d c>B | "A"A2 c>e a2 | "A7"a2 ~g>e c>e | "D"d2 d4 :|
